img/service-delivery-proccess__01.svg

<svg width="38" height="38" viewBox="0 0 38 38" fill="none" xmlns="http://www.w3.org/2000/svg">
<path d="M33.7613 30.9725C33.5555 30.616 33.0995 30.4937 32.7427 30.6996L30.0321 32.2644C29.6755 32.4702 29.5533 32.9263 29.7592 33.2829C29.8973 33.5221 30.148 33.656 30.4058 33.656C30.5322 33.656 30.6604 33.6237 30.7778 33.5559L33.4884 31.9912C33.8449 31.7852 33.9672 31.3292 33.7613 30.9725Z" fill="white"/>
<path d="M37.8128 21.6011C37.8126 21.5708 37.8108 21.5404 37.8068 21.5101C37.8065 21.5081 37.8061 21.5061 37.8058 21.5041C37.802 21.4769 37.7964 21.45 37.7895 21.4231C37.7876 21.4155 37.7855 21.4082 37.7834 21.4008C37.7771 21.3792 37.7697 21.3577 37.7614 21.3364C37.7585 21.3291 37.7559 21.3216 37.7528 21.3144C37.7414 21.2879 37.7288 21.2617 37.7141 21.236C37.7136 21.2352 37.7132 21.2344 37.7127 21.2337C37.698 21.2082 37.6816 21.1843 37.6643 21.1612C37.6597 21.1549 37.6545 21.1489 37.6496 21.1428C37.6353 21.1249 37.6204 21.1078 37.6047 21.0915C37.5994 21.0859 37.594 21.0804 37.5886 21.075C37.5687 21.0556 37.548 21.0372 37.5264 21.0203C37.5248 21.0191 37.5234 21.0177 37.5218 21.0165C37.4976 20.998 37.4723 20.9812 37.4461 20.9658C37.4441 20.9647 37.4424 20.9632 37.4405 20.9621L28.7794 15.9621V5.96097C28.7794 5.95882 28.7791 5.95681 28.779 5.95466C28.7788 5.92415 28.7769 5.89365 28.7729 5.86315C28.7727 5.86159 28.7723 5.8601 28.7721 5.85862C28.7683 5.83086 28.7625 5.8034 28.7555 5.77594C28.7537 5.76889 28.7516 5.76184 28.7496 5.75479C28.7432 5.7326 28.7356 5.71055 28.7271 5.68873C28.7244 5.6819 28.722 5.67493 28.7191 5.66825C28.7074 5.64116 28.6947 5.61436 28.6796 5.58817C28.6645 5.56204 28.6478 5.5377 28.6302 5.51409C28.6257 5.50808 28.6207 5.50237 28.6161 5.4965C28.6016 5.47832 28.5865 5.46095 28.5706 5.44448C28.5654 5.43906 28.5601 5.43357 28.5548 5.4283C28.5349 5.40878 28.5141 5.39037 28.4924 5.37338C28.4909 5.37219 28.4895 5.37085 28.488 5.36966C28.4637 5.35104 28.4383 5.33426 28.412 5.31882C28.4102 5.31771 28.4086 5.3163 28.4067 5.31526L19.3732 0.0998896C19.1425 -0.0332594 18.8583 -0.0333336 18.6275 0.0998896L9.59424 5.31519C9.59246 5.31623 9.59098 5.31749 9.5892 5.31853C9.56278 5.33404 9.53724 5.35089 9.51268 5.36974C9.51149 5.37063 9.51045 5.37167 9.50926 5.37263C9.48722 5.38978 9.46614 5.40856 9.44595 5.4283C9.44069 5.43349 9.43549 5.43884 9.43037 5.44418C9.41449 5.46073 9.39935 5.4781 9.38487 5.49628C9.3802 5.50215 9.37522 5.50793 9.3707 5.51402C9.35311 5.53755 9.33641 5.56197 9.32134 5.58802C9.30627 5.61414 9.29351 5.64079 9.28193 5.6678C9.27896 5.67478 9.27644 5.68205 9.27362 5.6891C9.26516 5.71063 9.25774 5.7323 9.25143 5.75419C9.24935 5.76139 9.24727 5.76867 9.24534 5.77594C9.23844 5.80303 9.23272 5.83027 9.22894 5.85765C9.22872 5.85951 9.2282 5.86122 9.22797 5.86307C9.22397 5.89343 9.22218 5.92393 9.22196 5.95429C9.22196 5.95644 9.22152 5.95859 9.22152 5.96074V15.9617L0.560302 20.9619C0.558447 20.9629 0.556888 20.9643 0.555107 20.9654C0.528759 20.9808 0.503228 20.9977 0.47881 21.0164C0.477622 21.0173 0.476509 21.0185 0.475321 21.0193C0.453278 21.0365 0.432274 21.0552 0.412087 21.0751C0.406743 21.0803 0.401622 21.0857 0.396427 21.091C0.380618 21.1075 0.365477 21.1248 0.351005 21.143C0.346255 21.1489 0.341208 21.1548 0.33668 21.1609C0.319313 21.1841 0.302836 21.2082 0.287918 21.234C0.287696 21.2344 0.287399 21.2347 0.287176 21.2352C0.272258 21.2611 0.259492 21.2876 0.248063 21.3144C0.24502 21.3216 0.242422 21.329 0.239528 21.3363C0.231215 21.3576 0.223793 21.3792 0.217484 21.4008C0.215332 21.4082 0.213254 21.4155 0.211324 21.4229C0.204422 21.4499 0.198781 21.4769 0.194996 21.5041C0.194699 21.5061 0.194254 21.508 0.193957 21.51C0.189949 21.5404 0.188168 21.5708 0.187945 21.6012C0.187945 21.6034 0.1875 21.6054 0.1875 21.6076V32.039H0.187574C0.187574 32.3055 0.329704 32.5516 0.560376 32.6848L9.59439 37.9C9.59617 37.9011 9.59818 37.9017 9.59996 37.9028C9.62653 37.9178 9.65377 37.9315 9.68219 37.9433C9.6839 37.944 9.68561 37.9445 9.68731 37.9451C9.71292 37.9555 9.73927 37.9642 9.76621 37.9718C9.77356 37.9739 9.78098 37.9756 9.78833 37.9774C9.8103 37.9828 9.83271 37.9872 9.85542 37.9906C9.86307 37.9918 9.87071 37.9932 9.87843 37.9941C9.90752 37.9975 9.93706 37.9998 9.96705 37.9998C9.99703 37.9998 10.0266 37.9975 10.0557 37.9941C10.0634 37.9932 10.071 37.9918 10.0787 37.9906C10.1014 37.9872 10.1237 37.9829 10.1457 37.9774C10.1531 37.9756 10.1605 37.9738 10.168 37.9717C10.1948 37.9643 10.221 37.9555 10.2464 37.9452C10.2483 37.9445 10.2501 37.944 10.252 37.9431C10.2803 37.9314 10.3076 37.9178 10.3339 37.9028C10.3358 37.9017 10.3378 37.901 10.3397 37.8999L19.0001 32.8999L27.6605 37.8999C27.6624 37.9011 27.6644 37.9017 27.6664 37.9028C27.6928 37.9178 27.7199 37.9314 27.7482 37.9431C27.7502 37.944 27.7522 37.9445 27.7541 37.9453C27.7795 37.9556 27.8056 37.9642 27.8323 37.9717C27.8397 37.9738 27.8472 37.9756 27.8547 37.9774C27.8765 37.9828 27.899 37.9872 27.9216 37.9906C27.9293 37.9918 27.937 37.9932 27.9447 37.9941C27.9738 37.9975 28.0032 37.9998 28.0333 37.9998C28.0634 37.9998 28.0928 37.9975 28.1219 37.9941C28.1296 37.9932 28.1373 37.9918 28.145 37.9906C28.1676 37.9872 28.1901 37.9829 28.2119 37.9774C28.2194 37.9756 28.2269 37.9738 28.2343 37.9717C28.261 37.9643 28.2871 37.9556 28.3125 37.9453C28.3144 37.9445 28.3164 37.944 28.3184 37.9431C28.3467 37.9314 28.3738 37.9178 28.4002 37.9028C28.4022 37.9017 28.4042 37.9011 28.4061 37.8999L37.4401 32.6847C37.6709 32.5516 37.813 32.3054 37.813 32.0389V21.6078C37.8133 21.6055 37.8128 21.6034 37.8128 21.6011ZM31.0675 19.0049L23.5255 23.3592L20.4917 21.6076L28.0335 17.2534L31.0675 19.0049ZM27.2879 15.9619L19.7461 20.3161V11.6076L27.2879 7.25268V15.9619ZM19.0003 1.60668L22.0342 3.35825L14.4921 7.71269L11.4584 5.96097L19.0003 1.60668ZM9.96705 17.2535L13.0005 19.0048L5.45839 23.3591L2.42461 21.6077L9.96705 17.2535ZM9.22144 35.9629L1.67878 31.6086V22.8992L4.89143 24.7539C4.99096 24.8576 5.11602 24.9285 5.25102 24.9615L9.22144 27.2537V35.9629ZM9.96712 25.962L6.94989 24.2202L14.4918 19.8658L17.509 21.6078L9.96712 25.962ZM18.2546 31.6086L10.7128 35.9628V27.2536L18.2546 22.8992V31.6086ZM18.2546 20.3162L10.7128 15.962V7.2526L13.9234 9.10659C14.0235 9.21132 14.1496 9.28271 14.2857 9.31574L18.2547 11.6076V20.3162H18.2546ZM15.9835 8.57392L23.5255 4.21927L26.5422 5.96097L19.0004 10.3159L15.9835 8.57392ZM27.2878 35.9628L19.7461 31.6086V22.8992L22.9586 24.754C23.0579 24.8574 23.1828 24.928 23.3176 24.9612L27.2879 27.2534V35.9628H27.2878ZM28.0336 25.962L25.0169 24.2203L32.5589 19.8659L35.576 21.6078L28.0336 25.962ZM36.3219 31.6086L28.7793 35.9629V27.2536L36.3219 22.8992V31.6086Z" fill="white"/>
<path d="M34.982 29.625C34.0224 29.625 34.0208 31.1164 34.982 31.1164C35.9416 31.1164 35.9433 29.625 34.982 29.625Z" fill="white"/>
</svg>

<svg width="38" height="38" fill="none" xmlns="http://www.w3.org/2000/svg"><path d="M33.761 30.973a.746.746 0 00-1.018-.273l-2.71 1.564a.746.746 0 10.745 1.292l2.71-1.565a.746.746 0 00.273-1.018z" fill="#fff"/><path d="M37.813 21.601a.68.68 0 00-.006-.09l-.001-.007a.735.735 0 00-.017-.08c-.001-.008-.004-.016-.006-.023a.776.776 0 00-.022-.065l-.008-.022a.77.77 0 00-.039-.078l-.001-.002a.725.725 0 00-.049-.073l-.014-.018a.736.736 0 00-.124-.123l-.004-.003a.75.75 0 00-.076-.051l-.005-.004-8.662-5V5.955a.74.74 0 00-.006-.092V5.86a.742.742 0 00-.017-.083l-.006-.021a.77.77 0 00-.023-.066l-.008-.02a.772.772 0 00-.089-.155l-.014-.018a.73.73 0 00-.124-.123l-.004-.003a.743.743 0 00-.076-.051l-.005-.004L19.373.1a.746.746 0 00-.745 0L9.594 5.315l-.005.004a.742.742 0 00-.076.05l-.004.004a.749.749 0 00-.124.123l-.014.018a.755.755 0 00-.09.154l-.007.021a.733.733 0 00-.045.169l-.001.005a.74.74 0 00-.006.091v10.007l-8.662 5-.005.004a.736.736 0 00-.076.051c-.001.001-.002.003-.004.003a.73.73 0 00-.063.056l-.016.016a.748.748 0 00-.045.052l-.014.018a.74.74 0 00-.05.073v.001a.738.738 0 00-.039.08l-.008.021a.777.777 0 00-.045.168l-.001.006a.738.738 0 00-.006.091V32.04c0 .267.142.513.372.646L9.594 37.9l.006.003a.76.76 0 00.082.04l.005.002c.026.01.052.02.08.027l.021.005a.74.74 0 00.067.014c.008 0 .016.002.023.003a.762.762 0 00.178 0l.023-.003a.708.708 0 00.167-.046l.006-.002a.723.723 0 00.082-.04l.006-.003 8.66-5 8.66 5 .006.003a.73.73 0 00.082.04l.006.002a.74.74 0 00.168.046l.023.003a.76.76 0 00.177 0c.008 0 .015-.002.023-.003a.7.7 0 00.067-.014l.022-.005a.718.718 0 00.078-.027l.006-.002a.73.73 0 00.082-.04l.006-.003 9.034-5.215a.745.745 0 00.373-.646V21.6zm-6.746-2.596l-7.541 4.354-3.034-1.751 7.541-4.355 3.034 1.752zm-3.78-3.043l-7.54 4.354v-8.708l7.54-4.355v8.709zM19 1.607l3.034 1.751-7.542 4.355-3.034-1.752L19 1.607zM9.967 17.253l3.034 1.752-7.543 4.354-3.033-1.751 7.542-4.355zm-.746 18.71L1.68 31.609v-8.71l3.212 1.855c.1.104.225.174.36.207l3.97 2.293v8.709zm.746-10.001L6.95 24.22l7.542-4.354 3.017 1.742-7.542 4.354zm8.288 5.647l-7.542 4.354v-8.71l7.542-4.354v8.71zm0-11.293l-7.542-4.354v-8.71l3.21 1.855a.75.75 0 00.363.209l3.969 2.292v8.708zM15.984 8.574l7.542-4.355 3.016 1.742L19 10.316l-3.017-1.742zm11.304 27.389l-7.542-4.354v-8.71l3.213 1.855a.743.743 0 00.359.207l3.97 2.292v8.71zm.746-10.001l-3.017-1.742 7.542-4.354 3.017 1.742-7.542 4.354zm8.288 5.647l-7.543 4.354v-8.71l7.543-4.354v8.71z" fill="#fff"/><path d="M34.982 29.625c-.96 0-.961 1.491 0 1.491.96 0 .961-1.491 0-1.491z" fill="#fff"/></svg>
